Newaita-dark/apps/48/mongodb-compass.svg

<svg height="48pt" viewBox="0 0 48 48" width="48pt" xmlns="http://www.w3.org/2000/svg" xmlns:xlink="http://www.w3.org/1999/xlink"><linearGradient id="a"><stop offset="0" stop-opacity=".313726"/><stop offset=".222222" stop-opacity=".27451"/><stop offset="1" stop-opacity="0"/></linearGradient><radialGradient id="b" cx="450.908936" cy="189.579361" gradientTransform="matrix(.00000026 -.102549 -.210958 -.00000013 64.304019 88.973262)" gradientUnits="userSpaceOnUse" r="21.166656" xlink:href="#a"/><radialGradient id="c" cx="450.908936" cy="189.579361" gradientTransform="matrix(-.00000026 .102549 .210958 .00000013 -16.67447 -4.375346)" gradientUnits="userSpaceOnUse" r="21.166656" xlink:href="#a"/><radialGradient id="d" cx="450.908936" cy="189.579361" gradientTransform="matrix(-.00000026 -.102549 .210958 -.00000013 -16.67447 88.973262)" gradientUnits="userSpaceOnUse" r="21.166656" xlink:href="#a"/><radialGradient id="e" cx="450.908936" cy="189.579361" gradientTransform="matrix(.00000026 .102549 -.210958 .00000013 64.304016 -4.375346)" gradientUnits="userSpaceOnUse" r="21.166656" xlink:href="#a"/><linearGradient id="f" gradientTransform="matrix(.0200401 0 0 .082039 18.698077 23.142854)" gradientUnits="userSpaceOnUse" x1="255.323059" x2="255.323044" y1="233.5" y2="254.666656"><stop offset="0" stop-opacity=".27451"/><stop offset="1" stop-opacity="0"/></linearGradient><linearGradient id="g" gradientUnits="userSpaceOnUse" x1="23.814786" x2="23.814786" y1="42.0509015" y2="4.34415649995"><stop offset="0" stop-color="#424242"/><stop offset="1" stop-color="#616161"/></linearGradient><linearGradient id="h"><stop offset="0" stop-color="#66bb6a"/><stop offset="1" stop-color="#81c784"/></linearGradient><linearGradient id="i" gradientUnits="userSpaceOnUse" x1="23.814786" x2="23.814786" xlink:href="#h" y1="42.0509005" y2="4.34415549995"/><linearGradient id="j" gradientUnits="userSpaceOnUse" x1="254" x2="254" y1="127.666656" y2="74.75"><stop offset="0" stop-color="#bdbdbd"/><stop offset="1" stop-color="#e0e0e0"/></linearGradient><linearGradient id="k" gradientUnits="userSpaceOnUse" x1="22.82250375005" x2="22.82250375005" y1="28.15894325002" y2="11.29013599998"><stop offset="0" stop-color="#9ccc65"/><stop offset="1" stop-color="#aed581"/></linearGradient><linearGradient id="l" gradientUnits="userSpaceOnUse" x1="26.79163425" x2="26.79163425" xlink:href="#h" y1="28.15894325002" y2="11.29013599998"/><path d="m24.808594 42.300781h3.96875v-1.738281h-3.96875zm0 0" fill="url(#b)"/><path d="m22.824219 42.300781h-3.972657v1.734375h3.972657zm0 0" fill="url(#c)"/><path d="m22.824219 42.300781h-3.972657v-1.738281h3.972657zm0 0" fill="url(#d)"/><path d="m24.808594 42.300781h3.96875v1.734375h-3.96875zm0 0" fill="url(#e)"/><path d="m22.824219 41.863281h1.984375v2.171875h-1.984375zm0 0" fill="url(#f)"/><path d="m23.816406 4.34375c12.898438 0 17.859375 2.976562 17.859375 5.953125 0 14.886719-10.914062 31.753906-17.859375 31.753906-6.949218 0-17.863281-16.867187-17.863281-31.753906 0-2.976563 5.953125-5.953125 17.863281-5.953125zm0 0" fill="url(#g)"/><path d="m23.816406 4.34375c-11.910156 0-17.863281 2.976562-17.863281 5.953125 0 14.886719 10.914063 31.753906 17.863281 31.753906 6.945313 0 17.859375-16.867187 17.859375-31.753906 0-2.976563-4.960937-5.953125-17.859375-5.953125zm0 1.984375c11.550782 0 15.992188 2.667969 15.992188 5.332031 0 13.328125-9.773438 28.433594-15.992188 28.433594-6.222656 0-15.996094-15.105469-15.996094-28.433594 0-2.664062 5.332032-5.332031 15.996094-5.332031zm0 0" fill="url(#i)"/><path d="m41.667969 10.070312c-.3125 14.722657-11.007813 31.097657-17.851563 31.097657s-17.535156-16.367188-17.855468-31.082031c-.003907.058593-.007813.121093-.007813.179687 0 14.882813 10.914063 31.753906 17.863281 31.753906 6.945313 0 17.859375-16.871093 17.859375-31.753906 0-.066406-.003906-.128906-.007812-.195313zm0 0" fill-opacity=".235294"/><path d="m23.816406 4.34375c-11.910156 0-17.863281 2.976562-17.863281 5.953125 0 .132813 0 .261719.003906.394531.136719-2.945312 6.089844-5.851562 17.859375-5.851562 12.734375 0 17.734375 2.902344 17.855469 5.84375.003906-.128906.003906-.257813.003906-.386719 0-2.976563-4.960937-5.953125-17.859375-5.953125zm0 0" fill="#fff" fill-opacity=".392157"/><path d="m23.816406 12.273438s-7.433594 5.851562-6.671875 11.003906c.535157 3.640625 3.992188 5.113281 5.707031 5.625-.019531.078125-.027343.15625-.027343.238281v2.976563c0 .550781.441406.992187.992187.992187.546875 0 .992188-.441406.992188-.992187v-2.976563c0-.082031-.011719-.160156-.03125-.238281 1.714844-.511719 5.171875-1.984375 5.710937-5.625.757813-5.152344-6.671875-11.003906-6.671875-11.003906zm0 0" fill-opacity=".313726"/><path d="m254.017409 74.763996c5.832777 0 10.582323 4.707883 10.582323 10.582322v31.746969c0 5.832776-4.749546 10.582322-10.582323 10.582322-5.874439 0-10.582323-4.749546-10.582323-10.582322v-31.746969c0-5.874439 4.707884-10.582322 10.582323-10.582322zm0 0" fill="url(#j)" stroke="#78909c" stroke-linecap="round" stroke-linejoin="round" stroke-width="2" transform="matrix(.093759 0 0 .093759 0 20.158175)"/><path d="m23.816406 4.203125c-5.96875 0-10.445312.746094-13.445312 1.871094-1.5.5625-2.632813 1.21875-3.398438 1.933593-.761718.71875-1.160156 1.5-1.160156 2.289063 0 7.476563 2.738281 15.433594 6.347656 21.53125 1.800782 3.046875 3.824219 5.632813 5.839844 7.457031 2.011719 1.828125 4.019531 2.90625 5.816406 2.90625 1.792969 0 3.800782-1.078125 5.8125-2.90625 2.015625-1.824218 4.039063-4.410156 5.84375-7.457031 3.605469-6.097656 6.34375-14.054687 6.34375-21.53125 0-.78125-.328125-1.5625-1.015625-2.28125s-1.726562-1.378906-3.167969-1.941406c-2.878906-1.128907-7.355468-1.871094-13.816406-1.871094zm0 .28125c6.4375 0 10.890625.746094 13.714844 1.851563 1.414062.550781 2.417969 1.195312 3.066406 1.871093.648438.679688.9375 1.386719.9375 2.089844 0 7.410156-2.71875 15.328125-6.304687 21.386719-1.792969 3.03125-3.804688 5.59375-5.789063 7.394531s-3.945312 2.832031-5.625 2.832031c-1.679687 0-3.640625-1.03125-5.628906-2.832031-1.984375-1.800781-3.996094-4.363281-5.785156-7.394531-3.585938-6.058594-6.308594-13.976563-6.308594-21.386719 0-.695313.347656-1.402344 1.074219-2.082031.722656-.679688 1.824219-1.324219 3.300781-1.878906 2.953125-1.105469 7.402344-1.851563 13.347656-1.851563zm0 1.703125c-5.34375 0-9.355468.667969-12.046875 1.675781-1.34375.503907-2.359375 1.09375-3.042969 1.738281-.6875.640626-1.046874 1.34375-1.046874 2.058594 0 6.699219 2.453124 13.824219 5.683593 19.285156 1.617188 2.730469 3.429688 5.046876 5.234375 6.683594 1.804688 1.636719 3.605469 2.605469 5.21875 2.605469 1.609375 0 3.410156-.96875 5.214844-2.605469 1.804688-1.636718 3.617188-3.953125 5.234375-6.683594 3.230469-5.460937 5.683594-12.585937 5.683594-19.285156 0-.707031-.296875-1.410156-.914063-2.054687-.617187-.644531-1.550781-1.238281-2.839844-1.742188-2.582031-1.007812-6.59375-1.675781-12.378906-1.675781zm0 .28125c5.761719 0 9.746094.667969 12.273438 1.65625 1.265625.496094 2.164062 1.070312 2.742187 1.675781.578125.601563.835938 1.230469.835938 1.859375 0 6.628906-2.4375 13.71875-5.644531 19.140625-1.605469 2.714844-3.402344 5.007813-5.179688 6.617188-1.777344 1.613281-3.53125 2.535156-5.027344 2.535156-1.5 0-3.253906-.921875-5.03125-2.535156-1.777344-1.609375-3.574218-3.902344-5.179687-6.617188-3.207031-5.421875-5.644531-12.511719-5.644531-19.140625 0-.621094.308593-1.25.957031-1.855468.644531-.605469 1.628906-1.183594 2.953125-1.679688 2.640625-.988281 6.625-1.65625 11.945312-1.65625zm0 0" fill="#212121"/><path d="m23.816406 11.289062s-7.433594 5.855469-6.671875 11.007813c.714844 4.871094 6.671875 5.863281 6.671875 5.863281zm0 0" fill="url(#k)"/><path d="m23.816406 11.289062s7.429688 5.855469 6.671875 11.007813c-.71875 4.871094-6.671875 5.863281-6.671875 5.863281zm0 0" fill="url(#l)"/><path d="m23.816406 11.289062s-6.953125 5.476563-6.722656 10.5c.21875-4.882812 6.722656-10.003906 6.722656-10.003906s6.5 5.121094 6.71875 10.003906c.230469-5.023437-6.71875-10.5-6.71875-10.5zm-.992187 17.121094v.246094c0-.082031.007812-.164062.027343-.238281-.007812-.003907-.019531-.007813-.027343-.007813zm1.984375 0c-.011719 0-.019532.003906-.03125.007813.019531.074219.03125.15625.03125.238281zm0 0" fill="#fff" fill-opacity=".588235"/><path d="m960.065849 455.074677s-299.656439 236.040463-268.950709 443.737176c21.572745 146.600181 160.929523 205.964594 230.056783 226.750012-.787326 2.99184-1.102257 6.298611-1.102257 9.605382v119.988548c0 22.04514 17.793578 39.996183 39.996183 39.996183 22.04514 0 39.996183-17.951043 39.996183-39.996183v-119.988548c0-3.306771-.472396-6.613542-1.259723-9.605382 69.127261-20.785418 208.484039-80.149831 230.214249-226.750012 30.548265-207.696713-268.950709-443.737176-268.950709-443.737176zm0 0" fill="none" stroke="#212121" stroke-linecap="round" stroke-linejoin="round" stroke-width="11.338583" transform="scale(.0248071)"/></svg>

<?xml version="1.0" encoding="UTF-8"?>
<svg xmlns="http://www.w3.org/2000/svg" xmlns:xlink="http://www.w3.org/1999/xlink" width="48pt" height="48pt" viewBox="0 0 48 48" version="1.1">
<defs>
<radialGradient id="radial0" gradientUnits="userSpaceOnUse" cx="450.908936" cy="189.579361" fx="450.908936" fy="189.579361" r="21.166656" gradientTransform="matrix(0.000000261256,-0.102549,-0.210958,-0.000000133269,64.304019,88.973262)">
<stop offset="0" style="stop-color:rgb(0%,0%,0%);stop-opacity:0.313726;"/>
<stop offset="0.222222" style="stop-color:rgb(0%,0%,0%);stop-opacity:0.27451;"/>
<stop offset="1" style="stop-color:rgb(0%,0%,0%);stop-opacity:0;"/>
</radialGradient>
<radialGradient id="radial1" gradientUnits="userSpaceOnUse" cx="450.908936" cy="189.579361" fx="450.908936" fy="189.579361" r="21.166656" gradientTransform="matrix(-0.000000261256,0.102549,0.210958,0.000000133269,-16.67447,-4.375346)">
<stop offset="0" style="stop-color:rgb(0%,0%,0%);stop-opacity:0.313726;"/>
<stop offset="0.222222" style="stop-color:rgb(0%,0%,0%);stop-opacity:0.27451;"/>
<stop offset="1" style="stop-color:rgb(0%,0%,0%);stop-opacity:0;"/>
</radialGradient>
<radialGradient id="radial2" gradientUnits="userSpaceOnUse" cx="450.908936" cy="189.579361" fx="450.908936" fy="189.579361" r="21.166656" gradientTransform="matrix(-0.000000261256,-0.102549,0.210958,-0.000000133269,-16.67447,88.973262)">
<stop offset="0" style="stop-color:rgb(0%,0%,0%);stop-opacity:0.313726;"/>
<stop offset="0.222222" style="stop-color:rgb(0%,0%,0%);stop-opacity:0.27451;"/>
<stop offset="1" style="stop-color:rgb(0%,0%,0%);stop-opacity:0;"/>
</radialGradient>
<radialGradient id="radial3" gradientUnits="userSpaceOnUse" cx="450.908936" cy="189.579361" fx="450.908936" fy="189.579361" r="21.166656" gradientTransform="matrix(0.000000261256,0.102549,-0.210958,0.000000133269,64.304016,-4.375346)">
<stop offset="0" style="stop-color:rgb(0%,0%,0%);stop-opacity:0.313726;"/>
<stop offset="0.222222" style="stop-color:rgb(0%,0%,0%);stop-opacity:0.27451;"/>
<stop offset="1" style="stop-color:rgb(0%,0%,0%);stop-opacity:0;"/>
</radialGradient>
<linearGradient id="linear0" gradientUnits="userSpaceOnUse" x1="255.323059" y1="233.5" x2="255.323044" y2="254.666656" gradientTransform="matrix(0.0200401,0,0,0.082039,18.698077,23.142854)">
<stop offset="0" style="stop-color:rgb(0%,0%,0%);stop-opacity:0.27451;"/>
<stop offset="1" style="stop-color:rgb(0%,0%,0%);stop-opacity:0;"/>
</linearGradient>
<linearGradient id="linear1" gradientUnits="userSpaceOnUse" x1="254" y1="233.5" x2="254" y2="-168.666672" gradientTransform="matrix(0.093759,0,0,0.093759,0,20.158175)">
<stop offset="0" style="stop-color:rgb(25.882354%,25.882354%,25.882354%);stop-opacity:1;"/>
<stop offset="1" style="stop-color:rgb(38.039216%,38.039216%,38.039216%);stop-opacity:1;"/>
</linearGradient>
<linearGradient id="linear2" gradientUnits="userSpaceOnUse" x1="254" y1="233.5" x2="254" y2="-168.666672" gradientTransform="matrix(0.093759,0,0,0.093759,0,20.158174)">
<stop offset="0" style="stop-color:rgb(40.000001%,73.333335%,41.568628%);stop-opacity:1;"/>
<stop offset="1" style="stop-color:rgb(50.588238%,78.039217%,51.764709%);stop-opacity:1;"/>
</linearGradient>
<linearGradient id="linear3" gradientUnits="userSpaceOnUse" x1="254" y1="127.666656" x2="254" y2="74.75" gradientTransform="matrix(1,0,0,1,0,0)">
<stop offset="0" style="stop-color:rgb(74.117649%,74.117649%,74.117649%);stop-opacity:1;"/>
<stop offset="1" style="stop-color:rgb(87.843138%,87.843138%,87.843138%);stop-opacity:1;"/>
</linearGradient>
<linearGradient id="linear4" gradientUnits="userSpaceOnUse" x1="243.416672" y1="85.333336" x2="243.416672" y2="-94.583336" gradientTransform="matrix(0.093759,0,0,0.093759,0,20.158175)">
<stop offset="0" style="stop-color:rgb(61.176473%,80.000001%,39.607844%);stop-opacity:1;"/>
<stop offset="1" style="stop-color:rgb(68.235296%,83.529413%,50.588238%);stop-opacity:1;"/>
</linearGradient>
<linearGradient id="linear5" gradientUnits="userSpaceOnUse" x1="285.75" y1="85.333336" x2="285.75" y2="-94.583336" gradientTransform="matrix(0.093759,0,0,0.093759,0,20.158175)">
<stop offset="0" style="stop-color:rgb(40.000001%,73.333335%,41.568628%);stop-opacity:1;"/>
<stop offset="1" style="stop-color:rgb(50.588238%,78.039217%,51.764709%);stop-opacity:1;"/>
</linearGradient>
</defs>
<g id="surface1">
<path style=" stroke:none;fill-rule:nonzero;fill:url(#radial0);" d="M 24.808594 42.300781 L 28.777344 42.300781 L 28.777344 40.5625 L 24.808594 40.5625 Z M 24.808594 42.300781 "/>
<path style=" stroke:none;fill-rule:nonzero;fill:url(#radial1);" d="M 22.824219 42.300781 L 18.851562 42.300781 L 18.851562 44.035156 L 22.824219 44.035156 Z M 22.824219 42.300781 "/>
<path style=" stroke:none;fill-rule:nonzero;fill:url(#radial2);" d="M 22.824219 42.300781 L 18.851562 42.300781 L 18.851562 40.5625 L 22.824219 40.5625 Z M 22.824219 42.300781 "/>
<path style=" stroke:none;fill-rule:nonzero;fill:url(#radial3);" d="M 24.808594 42.300781 L 28.777344 42.300781 L 28.777344 44.035156 L 24.808594 44.035156 Z M 24.808594 42.300781 "/>
<path style=" stroke:none;fill-rule:nonzero;fill:url(#linear0);" d="M 22.824219 41.863281 L 24.808594 41.863281 L 24.808594 44.035156 L 22.824219 44.035156 Z M 22.824219 41.863281 "/>
<path style=" stroke:none;fill-rule:nonzero;fill:url(#linear1);" d="M 23.816406 4.34375 C 36.714844 4.34375 41.675781 7.320312 41.675781 10.296875 C 41.675781 25.183594 30.761719 42.050781 23.816406 42.050781 C 16.867188 42.050781 5.953125 25.183594 5.953125 10.296875 C 5.953125 7.320312 11.90625 4.34375 23.816406 4.34375 Z M 23.816406 4.34375 "/>
<path style=" stroke:none;fill-rule:nonzero;fill:url(#linear2);" d="M 23.816406 4.34375 C 11.90625 4.34375 5.953125 7.320312 5.953125 10.296875 C 5.953125 25.183594 16.867188 42.050781 23.816406 42.050781 C 30.761719 42.050781 41.675781 25.183594 41.675781 10.296875 C 41.675781 7.320312 36.714844 4.34375 23.816406 4.34375 Z M 23.816406 6.328125 C 35.367188 6.328125 39.808594 8.996094 39.808594 11.660156 C 39.808594 24.988281 30.035156 40.09375 23.816406 40.09375 C 17.59375 40.09375 7.820312 24.988281 7.820312 11.660156 C 7.820312 8.996094 13.152344 6.328125 23.816406 6.328125 Z M 23.816406 6.328125 "/>
<path style=" stroke:none;fill-rule:nonzero;fill:rgb(0%,0%,0%);fill-opacity:0.235294;" d="M 41.667969 10.070312 C 41.355469 24.792969 30.660156 41.167969 23.816406 41.167969 C 16.972656 41.167969 6.28125 24.800781 5.960938 10.085938 C 5.957031 10.144531 5.953125 10.207031 5.953125 10.265625 C 5.953125 25.148438 16.867188 42.019531 23.816406 42.019531 C 30.761719 42.019531 41.675781 25.148438 41.675781 10.265625 C 41.675781 10.199219 41.671875 10.136719 41.667969 10.070312 Z M 41.667969 10.070312 "/>
<path style=" stroke:none;fill-rule:nonzero;fill:rgb(100%,100%,100%);fill-opacity:0.392157;" d="M 23.816406 4.34375 C 11.90625 4.34375 5.953125 7.320312 5.953125 10.296875 C 5.953125 10.429688 5.953125 10.558594 5.957031 10.691406 C 6.09375 7.746094 12.046875 4.839844 23.816406 4.839844 C 36.550781 4.839844 41.550781 7.742188 41.671875 10.683594 C 41.675781 10.554688 41.675781 10.425781 41.675781 10.296875 C 41.675781 7.320312 36.714844 4.34375 23.816406 4.34375 Z M 23.816406 4.34375 "/>
<path style=" stroke:none;fill-rule:nonzero;fill:rgb(0%,0%,0%);fill-opacity:0.313726;" d="M 23.816406 12.273438 C 23.816406 12.273438 16.382812 18.125 17.144531 23.277344 C 17.679688 26.917969 21.136719 28.390625 22.851562 28.902344 C 22.832031 28.980469 22.824219 29.058594 22.824219 29.140625 L 22.824219 32.117188 C 22.824219 32.667969 23.265625 33.109375 23.816406 33.109375 C 24.363281 33.109375 24.808594 32.667969 24.808594 32.117188 L 24.808594 29.140625 C 24.808594 29.058594 24.796875 28.980469 24.777344 28.902344 C 26.492188 28.390625 29.949219 26.917969 30.488281 23.277344 C 31.246094 18.125 23.816406 12.273438 23.816406 12.273438 Z M 23.816406 12.273438 "/>
<path style="fill-rule:nonzero;fill:url(#linear3);stroke-width:2;stroke-linecap:round;stroke-linejoin:round;stroke:rgb(47.058824%,56.470591%,61.176473%);stroke-opacity:1;stroke-miterlimit:4;" d="M 254.017409 74.763996 C 259.850186 74.763996 264.599732 79.471879 264.599732 85.346318 L 264.599732 117.093287 C 264.599732 122.926063 259.850186 127.675609 254.017409 127.675609 C 248.14297 127.675609 243.435086 122.926063 243.435086 117.093287 L 243.435086 85.346318 C 243.435086 79.471879 248.14297 74.763996 254.017409 74.763996 Z M 254.017409 74.763996 " transform="matrix(0.093759,0,0,0.093759,0,20.158175)"/>
<path style=" stroke:none;fill-rule:nonzero;fill:rgb(12.941177%,12.941177%,12.941177%);fill-opacity:1;" d="M 23.816406 4.203125 C 17.847656 4.203125 13.371094 4.949219 10.371094 6.074219 C 8.871094 6.636719 7.738281 7.292969 6.972656 8.007812 C 6.210938 8.726562 5.8125 9.507812 5.8125 10.296875 C 5.8125 17.773438 8.550781 25.730469 12.160156 31.828125 C 13.960938 34.875 15.984375 37.460938 18 39.285156 C 20.011719 41.113281 22.019531 42.191406 23.816406 42.191406 C 25.609375 42.191406 27.617188 41.113281 29.628906 39.285156 C 31.644531 37.460938 33.667969 34.875 35.472656 31.828125 C 39.078125 25.730469 41.816406 17.773438 41.816406 10.296875 C 41.816406 9.515625 41.488281 8.734375 40.800781 8.015625 C 40.113281 7.296875 39.074219 6.636719 37.632812 6.074219 C 34.753906 4.945312 30.277344 4.203125 23.816406 4.203125 Z M 23.816406 4.484375 C 30.253906 4.484375 34.707031 5.230469 37.53125 6.335938 C 38.945312 6.886719 39.949219 7.53125 40.597656 8.207031 C 41.246094 8.886719 41.535156 9.59375 41.535156 10.296875 C 41.535156 17.707031 38.816406 25.625 35.230469 31.683594 C 33.4375 34.714844 31.425781 37.277344 29.441406 39.078125 C 27.457031 40.878906 25.496094 41.910156 23.816406 41.910156 C 22.136719 41.910156 20.175781 40.878906 18.1875 39.078125 C 16.203125 37.277344 14.191406 34.714844 12.402344 31.683594 C 8.816406 25.625 6.09375 17.707031 6.09375 10.296875 C 6.09375 9.601562 6.441406 8.894531 7.167969 8.214844 C 7.890625 7.535156 8.992188 6.890625 10.46875 6.335938 C 13.421875 5.230469 17.871094 4.484375 23.816406 4.484375 Z M 23.816406 6.1875 C 18.472656 6.1875 14.460938 6.855469 11.769531 7.863281 C 10.425781 8.367188 9.410156 8.957031 8.726562 9.601562 C 8.039062 10.242188 7.679688 10.945312 7.679688 11.660156 C 7.679688 18.359375 10.132812 25.484375 13.363281 30.945312 C 14.980469 33.675781 16.792969 35.992188 18.597656 37.628906 C 20.402344 39.265625 22.203125 40.234375 23.816406 40.234375 C 25.425781 40.234375 27.226562 39.265625 29.03125 37.628906 C 30.835938 35.992188 32.648438 33.675781 34.265625 30.945312 C 37.496094 25.484375 39.949219 18.359375 39.949219 11.660156 C 39.949219 10.953125 39.652344 10.25 39.035156 9.605469 C 38.417969 8.960938 37.484375 8.367188 36.195312 7.863281 C 33.613281 6.855469 29.601562 6.1875 23.816406 6.1875 Z M 23.816406 6.46875 C 29.578125 6.46875 33.5625 7.136719 36.089844 8.125 C 37.355469 8.621094 38.253906 9.195312 38.832031 9.800781 C 39.410156 10.402344 39.667969 11.03125 39.667969 11.660156 C 39.667969 18.289062 37.230469 25.378906 34.023438 30.800781 C 32.417969 33.515625 30.621094 35.808594 28.84375 37.417969 C 27.066406 39.03125 25.3125 39.953125 23.816406 39.953125 C 22.316406 39.953125 20.5625 39.03125 18.785156 37.417969 C 17.007812 35.808594 15.210938 33.515625 13.605469 30.800781 C 10.398438 25.378906 7.960938 18.289062 7.960938 11.660156 C 7.960938 11.039062 8.269531 10.410156 8.917969 9.804688 C 9.5625 9.199219 10.546875 8.621094 11.871094 8.125 C 14.511719 7.136719 18.496094 6.46875 23.816406 6.46875 Z M 23.816406 6.46875 "/>
<path style=" stroke:none;fill-rule:nonzero;fill:url(#linear4);" d="M 23.816406 11.289062 C 23.816406 11.289062 16.382812 17.144531 17.144531 22.296875 C 17.859375 27.167969 23.816406 28.160156 23.816406 28.160156 Z M 23.816406 11.289062 "/>
<path style=" stroke:none;fill-rule:nonzero;fill:url(#linear5);" d="M 23.816406 11.289062 C 23.816406 11.289062 31.246094 17.144531 30.488281 22.296875 C 29.769531 27.167969 23.816406 28.160156 23.816406 28.160156 Z M 23.816406 11.289062 "/>
<path style=" stroke:none;fill-rule:nonzero;fill:rgb(100%,100%,100%);fill-opacity:0.588235;" d="M 23.816406 11.289062 C 23.816406 11.289062 16.863281 16.765625 17.09375 21.789062 C 17.3125 16.90625 23.816406 11.785156 23.816406 11.785156 C 23.816406 11.785156 30.316406 16.90625 30.535156 21.789062 C 30.765625 16.765625 23.816406 11.289062 23.816406 11.289062 Z M 22.824219 28.410156 L 22.824219 28.65625 C 22.824219 28.574219 22.832031 28.492188 22.851562 28.417969 C 22.84375 28.414062 22.832031 28.410156 22.824219 28.410156 Z M 24.808594 28.410156 C 24.796875 28.410156 24.789062 28.414062 24.777344 28.417969 C 24.796875 28.492188 24.808594 28.574219 24.808594 28.65625 Z M 24.808594 28.410156 "/>
<path style="fill:none;stroke-width:11.338583;stroke-linecap:round;stroke-linejoin:round;stroke:rgb(12.941177%,12.941177%,12.941177%);stroke-opacity:1;stroke-miterlimit:4;" d="M 960.065849 455.074677 C 960.065849 455.074677 660.40941 691.11514 691.11514 898.811853 C 712.687885 1045.412034 852.044663 1104.776447 921.171923 1125.561865 C 920.384597 1128.553705 920.069666 1131.860476 920.069666 1135.167247 L 920.069666 1255.155795 C 920.069666 1277.200935 937.863244 1295.151978 960.065849 1295.151978 C 982.110989 1295.151978 1000.062032 1277.200935 1000.062032 1255.155795 L 1000.062032 1135.167247 C 1000.062032 1131.860476 999.589636 1128.553705 998.802309 1125.561865 C 1067.92957 1104.776447 1207.286348 1045.412034 1229.016558 898.811853 C 1259.564823 691.11514 960.065849 455.074677 960.065849 455.074677 Z M 960.065849 455.074677 " transform="matrix(0.0248071,0,0,0.0248071,0,0)"/>
</g>
</svg>
